!!!!SEGMENT: pl-wtm--r-1664--011_stefani-jozef--okropnosc-czyli-nowa-lafarge-no-7-allegro-moderato.krn
!!!cenid: 18xx:2066
!!!COM: Stefani, Józef
!!!COM-rism: pe30024097
!!!CDT: 1800/04/16-1876/03/19
!!!CNT: Polish
!!!OTL: Okropność czyli Nowa Lafarge – No. 7 – Allegro moderato
!!!PDT:
!!!AGN: Secular
!!!SMS-siglum: PL-Wtm
!!!SMS-shelfmark: R 1664
!!!NIFC-rismID: 1001114328
!!!URL-scan: http://repozytorium.nifc.pl/skany/pl-wtm-nut--r1664
!!!ONB-nifc: UWAGA: skany 0050-0055
!!!SMS-variant:
!!!SMS-altvar:
!!!OMD: All.o. mod.to.
**kern	**kern	**dynam	**kern	**text	**text	**kern	**dynam	**kern	**dynam	**kern	**dynam	**kern	**dynam	**kern	**dynam	**kern	**dynam	**kern	**dynam	**kern	**dynam	**kern	**dynam	**kern	**dynam
*part13	*part12	*part12	*part11	*part11	*part11	*part10	*part10	*part9	*part9	*part8	*part8	*part7	*part7	*part6	*part6	*part5	*part5	*part4	*part4	*part3	*part3	*part2	*part2	*part1	*part1
*staff13	*staff12	*	*staff11	*staff11	*staff11	*staff10	*	*staff9	*	*staff8	*	*staff7	*	*staff6	*	*staff5	*	*staff4	*	*staff3	*	*staff2	*	*staff1	*
*I"[Timpani]	*I"[Baſsi]	*	*I"[Voce]	*	*	*I"[Viole]	*	*	*	*I"[Violini]	*	*I"[Trombone]	*	*I"[in C Tromba]	*	*I"[Fagoto]	*	*I"[in C Corni]	*	*I"[in C Clarinetti]	*	*I"[Oboe]	*	*I"[Flauto]	*
*I'[timp]	*I'[b]	*	*I'[V]	*	*	*I'[vla]	*	*I'[vl II]	*	*I'[vl I]	*	*I'[trb]	*	*I'[tr in C]	*	*I'[fag]	*	*I'[cor I, II in C]	*	*I'[cl I, II, in C]	*	*I'[ob]	*	*I'[fl]	*
*>[A,B,B,C]	*>[A,B,B,C]>[A,B,B,C]	*>[A,B,B,C]	*>[A,B,B,C]	*>[A,B,B,C]	*>[A,B,B,C]	*>[A,B,B,C]	*>[A,B,B,C]	*>[A,B,B,C]	*>[A,B,B,C]	*>[A,B,B,C]	*>[A,B,B,C]	*>[A,B,B,C]	*>[A,B,B,C]	*>[A,B,B,C]	*>[A,B,B,C]	*>[A,B,B,C]	*>[A,B,B,C]	*>[A,B,B,C]	*>[A,B,B,C]	*>[A,B,B,C]	*>[A,B,B,C]	*>[A,B,B,C]	*>[A,B,B,C]	*>[A,B,B,C]	*>[A,B,B,C]
*>A	*>A	*>A	*>A	*>A	*>A	*>A	*>A	*>A	*>A	*>A	*>A	*>A	*>A	*>A	*>A	*>A	*>A	*>A	*>A	*>A	*>A	*>A	*>A	*>A	*>A
*stria1	*	*	*	*	*	*	*	*	*	*	*	*	*	*	*	*	*	*	*	*	*	*	*	*	*
*clefF1	*clefF4	*	*clefG2	*	*	*clefC3	*	*clefG2	*	*clefG2	*	*clefF4	*	*clefG2	*	*clefF4	*	*clefG2	*	*clefG2	*	*clefG2	*	*clefG2	*
*	*Trd0c0	*	*	*	*	*	*	*	*	*	*	*	*	*	*	*	*	*Trd0c0	*	*	*	*	*	*	*
*k[]	*k[f#c#]	*	*k[f#c#]	*	*	*k[f#c#]	*	*k[f#c#]	*	*k[f#c#]	*	*k[f#c#]	*	*k[f#c#]	*	*k[f#c#]	*	*k[]	*	*k[f#c#]	*	*k[f#c#]	*	*k[f#c#]	*
*M3/8	*M3/8	*	*M3/8	*	*	*M3/8	*	*M3/8	*	*M3/8	*	*M3/8	*	*M3/8	*	*M3/8	*	*M3/8	*	*M3/8	*	*M3/8	*	*M3/8	*
*all\right	*all\right	*	*all\right	*	*	*all\right	*	*all\right	*	*all\right	*	*all\right	*	*all\right	*	*all\right	*	*all\right	*	*all\right	*	*all\right	*	*all\right	*
=1	=1	=1	=1	=1	=1	=1	=1	=1	=1	=1	=1	=1	=1	=1	=1	=1	=1	=1	=1	=1	=1	=1	=1	=1	=1
4.ryy	4.ryy	.	4.ryy	.	.	4.ryy	.	4.ryy	.	4.ryy	.	4.F#\	.	4.f#^/	.	4.F#\	.	4.f#X^/	.	4.ryy	.	4.ryy	.	4.ryy	.
=2	=2	=2	=2	=2	=2	=2	=2	=2	=2	=2	=2	=2	=2	=2	=2	=2	=2	=2	=2	=2	=2	=2	=2	=2	=2
4.ryy	4.ryy	.	4.ryy	.	.	4.ryy	.	4.ryy	.	4.ryy	.	4.F#\	.	4.f#^/	.	4.F#\	.	4.f#X^/	.	4.ryy	.	4.ryy	.	4.ryy	.
=3	=3	=3	=3	=3	=3	=3	=3	=3	=3	=3	=3	=3	=3	=3	=3	=3	=3	=3	=3	=3	=3	=3	=3	=3	=3
4.ryy	4.ryy	.	4.ryy	.	.	4.ryy	.	4.ryy	.	4.ryy	.	4.F#\	.	4.f#^/	.	4.F#\	.	4.f#X^/	.	4.ryy	.	4.ryy	.	4.ryy	.
=4	=4	=4	=4	=4	=4	=4	=4	=4	=4	=4	=4	=4	=4	=4	=4	=4	=4	=4	=4	=4	=4	=4	=4	=4	=4
4.ryy	4.ryy	.	4.ryy	.	.	4.ryy	.	4.ryy	.	4.ryy	.	4.F#\	.	4.f#^/	.	4.F#\	.	4.f#X^/	.	4.ryy	.	4.ryy	.	4.ryy	.
=5	=5	=5	=5	=5	=5	=5	=5	=5	=5	=5	=5	=5	=5	=5	=5	=5	=5	=5	=5	=5	=5	=5	=5	=5	=5
4.ryy	4.ryy	.	4.ryy	.	.	4.ryy	.	4.ryy	.	4.ryy	.	4BB/	.	4f#^/	.	4BB^/	.	4f#X 4B^/	.	4.ryy	.	4.ryy	.	4.ryy	.
.	.	.	.	.	.	.	.	.	.	.	.	8BB/	.	8f#/	.	8BB/	.	8f# 8B/	.	.	.	.	.	.	.
=6	=6	=6	=6	=6	=6	=6	=6	=6	=6	=6	=6	=6	=6	=6	=6	=6	=6	=6	=6	=6	=6	=6	=6	=6	=6
*	*	*	*	*	*	*	*	*	*	*	*	*rep	*	*rep	*	*rep	*	*rep	*	*	*	*	*	*	*
4.ryy	4.ryy	.	4.ryy	.	.	4.ryy	.	4.ryy	.	4.ryy	.	4BB/	.	4f#^/	.	4BB^/	.	4f#X 4B^/	.	4.ryy	.	4.ryy	.	4.ryy	.
.	.	.	.	.	.	.	.	.	.	.	.	8BB/	.	8f#/	.	8BB/	.	8f# 8B/	.	.	.	.	.	.	.
*	*	*	*	*	*	*	*	*	*	*	*	*Xrep	*	*Xrep	*	*Xrep	*	*Xrep	*	*	*	*	*	*	*
=7	=7	=7	=7	=7	=7	=7	=7	=7	=7	=7	=7	=7	=7	=7	=7	=7	=7	=7	=7	=7	=7	=7	=7	=7	=7
*	*	*	*	*	*	*	*	*	*	*	*	*rep	*	*rep	*	*rep	*	*rep	*	*	*	*	*	*	*
4.ryy	4.ryy	.	4.ryy	.	.	4.ryy	.	4.ryy	.	4.ryy	.	4BB/	.	4f#^/	.	4BB^/	.	4f#X 4B^/	.	4.ryy	.	4.ryy	.	4.ryy	.
.	.	.	.	.	.	.	.	.	.	.	.	8BB/	.	8f#/	.	8BB/	.	8f# 8B/	.	.	.	.	.	.	.
*	*	*	*	*	*	*	*	*	*	*	*	*Xrep	*	*Xrep	*	*Xrep	*	*Xrep	*	*	*	*	*	*	*
!!LO:PB:g=original
=8	=8	=8	=8	=8	=8	=8	=8	=8	=8	=8	=8	=8	=8	=8	=8	=8	=8	=8	=8	=8	=8	=8	=8	=8	=8
4.ryy	8r	.	8r	.	.	8r	.	8r	.	8r	.	4BB'/	.	4f#/	.	4BB/	.	4f#X 4B/	.	8r	.	8r	.	8r	.
.	8r	.	8r	.	.	8r	.	8r	.	8r	.	.	.	.	.	.	.	.	.	8r	.	8r	.	8r	.
=!|:	=!|:	=!|:	=!|:	=!|:	=!|:	=!|:	=!|:	=!|:	=!|:	=!|:	=!|:	=!|:	=!|:	=!|:	=!|:	=!|:	=!|:	=!|:	=!|:	=!|:	=!|:	=!|:	=!|:	=!|:	=!|:
*>B	*>B	*>B	*>B	*>B	*>B	*>B	*>B	*>B	*>B	*>B	*>B	*>B	*>B	*>B	*>B	*>B	*>B	*>B	*>B	*>B	*>B	*>B	*>B	*>B	*>B
!	!	!	!LO:TX:a:i:t=Müller	!	!	!	!	!	!	!	!	!	!	!	!	!	!	!LO:SIC:v:n=1:s=8f#	!	!	!LO:DY:rj	!	!LO:DY:rj	!	!
.	8r	.	(16.d/LL	O	.	8r	.	8r	.	8r	.	8BB/	p	(16.d/LL	.	8BB/	.	8f 8B/	.	16.dd\LL	p	(16.dd\LL	p	8r	.
.	.	.	32e/JJk)	.	.	.	.	.	.	.	.	.	.	32e/JJk)	.	.	.	.	.	32ee\JJk	.	32ee\JJk)	.	.	.
=9	=9	=9	=9	=9	=9	=9	=9	=9	=9	=9	=9	=9	=9	=9	=9	=9	=9	=9	=9	=9	=9	=9	=9	=9	=9
4.ryy	4.r	.	8d/	du-	.	4.r	.	4.r	.	4.r	.	4BB/	.	(8d/L	.	4BB/	.	4f#X 4B/	.	8dd\L	.	(8dd\L	.	4.r	.
.	.	.	8B/	-chy	.	.	.	.	.	.	.	.	.	8B/J)	.	.	.	.	.	8b\J	.	8b\J)	.	.	.
.	.	.	(16.d/LL	i	.	.	.	.	.	.	.	8BB/	.	(16.d/LL	.	8BB/	.	8f# 8B/	.	16.dd\LL	.	(16.dd\LL	.	.	.
.	.	.	32e/JJk)	.	.	.	.	.	.	.	.	.	.	32e/JJk)	.	.	.	.	.	32ee\JJk	.	32ee\JJk)	.	.	.
=10	=10	=10	=10	=10	=10	=10	=10	=10	=10	=10	=10	=10	=10	=10	=10	=10	=10	=10	=10	=10	=10	=10	=10	=10	=10
!	!	!	!	!	!	!	!	!	!	!	!	!	!	!	!	!	!	!	!	!	!	!LO:N:vis=16	!	!	!
4.ryy	4.r	.	8d/	cie-	.	4.r	.	4.r	.	4.r	.	4.BB/	.	(8d/L	.	4.E#X^\	.	4.g#X 4.B^>/	.	8dd\L	.	(8dd\L	.	4.r	.
!	!	!	!	!	!	!	!	!	!	!	!	!	!	!	!	!	!	!	!	!	!	!LO:N:vis=16	!	!	!
.	.	.	8B/	-nia	.	.	.	.	.	.	.	.	.	8B/J)	.	.	.	.	.	8b\J	.	8b\J)	.	.	.
.	.	.	(16.d/LL	Tu	.	.	.	.	.	.	.	.	.	(16.d/LL	.	.	.	.	.	16.dd\LL	.	(16.dd\LL	.	.	.
.	.	.	32e/JJk)	.	.	.	.	.	.	.	.	.	.	32e/JJk)	.	.	.	.	.	32ee\JJk	.	32ee\JJk)	.	.	.
=11	=11	=11	=11	=11	=11	=11	=11	=11	=11	=11	=11	=11	=11	=11	=11	=11	=11	=11	=11	=11	=11	=11	=11	=11	=11
4.ryy	8r	.	8d/	w_pie-	.	8r	.	8r	.	8r	.	4BB/	.	(8d/L	.	4F#\	.	4f#X 4B/	.	(8dd\L	.	(8dd\L	.	8r	.
.	8r	.	8B/	-cza-	.	8r	.	8r	.	8r	.	.	.	8B/J)	.	.	.	.	.	8b\J)	.	8b\J)	.	8r	.
.	8E\	sf	8b/	-rach	.	8e\	.	8g 8B/	sf	8bb 8b\	sf	8E\	.	8b/	sf	8E\	sf	8g 8e/	sf	8ee 8g\	sf	8bb\	sf	(32bb\LLL	.
.	.	.	.	.	.	.	.	.	.	.	.	.	.	.	.	.	.	.	.	.	.	.	.	32ccc#\	.
.	.	.	.	.	.	.	.	.	.	.	.	.	.	.	.	.	.	.	.	.	.	.	.	32ddd\	.
.	.	.	.	.	.	.	.	.	.	.	.	.	.	.	.	.	.	.	.	.	.	.	.	32eee\JJJ	.
=12	=12	=12	=12	=12	=12	=12	=12	=12	=12	=12	=12	=12	=12	=12	=12	=12	=12	=12	=12	=12	=12	=12	=12	=12	=12
!	!	!	!	!	!	!	!	!	!	!	!	!	!	!	!	!	!	!LO:SIC:v:n=1:s=4f#	!	!	!	!	!	!	!
4.ryy	4BB/	.	4f#/	tych	.	4d\	.	4f# 4B/	.	4ff# 4b\	.	4BB/	.	4f#/	.	4BB/	.	4f 4B/	.	4dd 4f#\	.	4ff#\	.	8fff#\)	.
.	.	.	.	.	.	.	.	.	.	.	.	.	.	.	.	.	.	.	.	.	.	.	.	8r	.
.	8r	.	(16.f#/LL	niech	.	8r	.	8r	.	8r	.	8r	.	(16.f#/LL	.	8r	.	8r	.	(16.ff#LL 16.dd\	.	(16.ff#\LL	.	8r	.
.	.	.	32g/JJk)	.	.	.	.	.	.	.	.	.	.	32g/JJk)	.	.	.	.	.	32ggJJk 32ee\)	.	32gg\JJk)	.	.	.
!!LO:PB:g=original
=13	=13	=13	=13	=13	=13	=13	=13	=13	=13	=13	=13	=13	=13	=13	=13	=13	=13	=13	=13	=13	=13	=13	=13	=13	=13
*	*	*	*	*	*	*	*	*	*	*	*	*	*	*	*	*	*	*^	*	*	*	*	*	*	*
4.ryy	4.r	.	8f#/	na-	.	4.r	.	4.r	.	4.r	.	4.E\	.	(8f#/L	.	4.E\	.	4.a#X/	4.gn\	.	(8ff#L 8dd\	.	(8ff#\L	.	4.r	.
.	.	.	8e/	-sze	.	.	.	.	.	.	.	.	.	8e/J)	.	.	.	.	.	.	8eeJ 8cc#\)	.	8ee\J)	.	.	.
.	.	.	(16.e/LL	cier-	.	.	.	.	.	.	.	.	.	(16.e/LL	.	.	.	.	.	.	(16.eeLL 16.cc#\	.	(16.ee\LL	.	.	.
.	.	.	32f#/JJk)	.	.	.	.	.	.	.	.	.	.	32f#/JJk)	.	.	.	.	.	.	32ff#JJk 32dd\)	.	32ff#\JJk)	.	.	.
=14	=14	=14	=14	=14	=14	=14	=14	=14	=14	=14	=14	=14	=14	=14	=14	=14	=14	=14	=14	=14	=14	=14	=14	=14	=14	=14
4.ryy	4.r	.	8e/	-pie-	.	4.r	.	4.r	.	4.r	.	4.E#X\	.	(8e/L	.	4.E#X\	.	4.b/	4.g#X\	.	(8eeL 8cc#\	.	(8ee\L	.	4.r	.
.	.	.	8d/	-nia	.	.	.	.	.	.	.	.	.	8d/J)	.	.	.	.	.	.	8ddJ 8b\)	.	8dd\J)	.	.	.
.	.	.	16.d/LL	za-	.	.	.	.	.	.	.	.	.	(16.d/LL	.	.	.	.	.	.	(16.ddLL 16.b\	.	(16.dd\LL	.	.	.
.	.	.	32e/JJk	.	.	.	.	.	.	.	.	.	.	32e/JJk)	.	.	.	.	.	.	32eeJJk 32cc#\)	.	32ee\JJk)	.	.	.
*	*	*	*	*	*	*	*	*	*	*	*	*	*	*	*	*	*	*v	*v	*	*	*	*	*	*	*
=15	=15	=15	=15	=15	=15	=15	=15	=15	=15	=15	=15	=15	=15	=15	=15	=15	=15	=15	=15	=15	=15	=15	=15	=15	=15
!	!	!	!	!	!	!	!	!	!	!	!	!	!	!	!	!	!	!LO:SIC:v:n=2:s=4f#	!	!	!	!	!	!	!
4.ryy	8r	.	8d/	-mie-	.	8r	.	8r	.	8r	.	4F#\	.	(8d/L	.	4F#\	.	4b 4g#X/	.	(8ddL 8b\	.	(8dd\L	.	8r	.
.	8r	.	8c#/	-nią	.	8r	.	8r	.	8r	.	.	.	8c#/J)	.	.	.	.	.	8cc#J 8a#X\)	.	8cc#\J)	.	8r	.
.	8F#\	sf	8f#/	się	.	8c# 8F#/	sf	8a#X/	sf	8ff#\	sf	8F#\	.	8f#/	.	8F#\	.	8cc#X 8f#X/	.	8ff# 8a#\	.	(32ff#\LLL	.	(32fff#\LLL	.
.	.	.	.	.	.	.	.	.	.	.	.	.	.	.	.	.	.	.	.	.	.	32ee\	.	32eee\	.
.	.	.	.	.	.	.	.	.	.	.	.	.	.	.	.	.	.	.	.	.	.	32dd\	.	32ddd\	.
.	.	.	.	.	.	.	.	.	.	.	.	.	.	.	.	.	.	.	.	.	.	32cc#\JJJ	.	32ccc#\JJJ	.
=16	=16	=16	=16	=16	=16	=16	=16	=16	=16	=16	=16	=16	=16	=16	=16	=16	=16	=16	=16	=16	=16	=16	=16	=16	=16
*	*	*	*	*	*	*^	*	*	*	*	*	*	*	*	*	*	*	*^	*	*	*	*	*	*	*
4.ryy	4BB/	.	4B/	w_śmiech	.	4d/	4B\	.	4b/	.	4b\	.	8BB/	.	8B/	.	8BB/	.	8dd/	8b\	.	8b|\	.	8b\)	.	8bb\)	.
.	.	.	.	.	.	.	.	.	.	.	.	.	8r	.	8r	.	8r	.	8r	8ryy	.	8r	.	8r	.	8r	.
=:|!	=:|!	=:|!	=:|!	=:|!	=:|!	=:|!	=:|!	=:|!	=:|!	=:|!	=:|!	=:|!	=:|!	=:|!	=:|!	=:|!	=:|!	=:|!	=:|!	=:|!	=:|!	=:|!	=:|!	=:|!	=:|!	=:|!	=:|!
*>C	*>C	*>C	*>C	*>C	*>C	*>C	*>C	*>C	*>C	*>C	*>C	*>C	*>C	*>C	*>C	*>C	*>C	*>C	*>C	*>C	*>C	*>C	*>C	*>C	*>C	*>C	*>C
.	8r	.	16b\	hej-	.	8r	8ryy	.	8r	.	8r	.	8r	.	(16b\LL	.	(16B\LL	.	8r	8ryy	.	(16b\LL	.	(16bb\LL	.	8r	.
.	.	.	16ccn\	-ża	.	.	.	.	.	.	.	.	.	.	16ccn\JJ)	.	16cn\JJ)	.	.	.	.	16ccn\JJ)	.	16cccn\JJ)	.	.	.
*	*	*	*	*	*	*v	*v	*	*	*	*	*	*	*	*	*	*	*	*	*	*	*	*	*	*	*	*
=17	=17	=17	=17	=17	=17	=17	=17	=17	=17	=17	=17	=17	=17	=17	=17	=17	=17	=17	=17	=17	=17	=17	=17	=17	=17	=17
*	*	*	*	*	*	*	*	*	*	*	*	*	*	*	*	*	*	*tremolo	*tremolo	*	*	*	*	*	*	*
4.ryy	4.r	.	(16dd/LL	ha	.	4.r	.	4.r	.	4.r	.	8d\L	.	(16dd/LL	.	(16d\LL	.	8dd/L	8dd\L	.	(16dd/LL	.	(16ddd\LL	.	4.r	.
.	.	.	16b/	.	.	.	.	.	.	.	.	.	.	16b/	.	16B\	.	.	.	.	16b/	.	16bb\	.	.	.
.	.	.	16g/	.	.	.	.	.	.	.	.	8B\	.	16g/	.	16G\	.	8dd/	8dd\	.	16g/	.	16gg\	.	.	.
.	.	.	16b/	.	.	.	.	.	.	.	.	.	.	16b/	.	16B\	.	.	.	.	16b/	.	16bb\	.	.	.
.	.	.	16a/	.	.	.	.	.	.	.	.	8G\J	.	16a/	.	16A\	.	8dd/J	8dd\J	.	16a/	.	16aa\	.	.	.
.	.	.	16g/JJ)	.	.	.	.	.	.	.	.	.	.	16g/JJ)	.	16G\JJ)	.	.	.	.	16g/JJ)	.	16gg\JJ)	.	.	.
!!LO:PB:g=original
=18	=18	=18	=18	=18	=18	=18	=18	=18	=18	=18	=18	=18	=18	=18	=18	=18	=18	=18	=18	=18	=18	=18	=18	=18	=18	=18
!	!	!	!	!	!	!	!	!	!	!	!	!	!	!LO:TX:t=P:problem:takty nr 18-22 zapisane w partii fag	!	!LO:TX:t=P:problem:takty nr 18-22 zapisane w partii tr	!	!	!	!	!	!	!	!	!	!
!LO:SIC:s=8D/	!	!	!	!	!	!	!	!	!	!	!	!	!	!LO:TX:a:t=Tromba	!	!LO:TX:a:t=Fag.	!	!	!	!	!	!	!	!	!	!
8Re/	4.r	.	16a/LL	.	.	4.r	.	4.r	.	4.r	.	8A\L	.	(16a/LL	.	(16A\LL	.	8dd/L	8dd\L	.	(16a/LL	.	(16aa\LL	.	4.r	.
.	.	.	16f#/	.	.	.	.	.	.	.	.	.	.	16f#/	.	16F#\	.	.	.	.	16f#/	.	16ff#\	.	.	.
8r	.	.	16d/	.	.	.	.	.	.	.	.	8F#\	.	16d/	.	16D\	.	8dd/	8dd\	.	16d/	.	16dd\	.	.	.
.	.	.	16a/	.	.	.	.	.	.	.	.	.	.	16a/	.	16A\	.	.	.	.	16a/	.	16aa\	.	.	.
8r	.	.	16g/	.	.	.	.	.	.	.	.	8D\J	.	16g/	.	16G\	.	8dd/J	8dd\J	.	16g/	.	16gg\	.	.	.
.	.	.	16f#/JJ	.	.	.	.	.	.	.	.	.	.	16f#/JJ)	.	16F#\JJ)	.	.	.	.	16f#/JJ)	.	16ff#\JJ)	.	.	.
*	*	*	*	*	*	*	*	*	*	*	*	*	*	*	*	*	*	*v	*v	*	*	*	*	*	*	*
=19	=19	=19	=19	=19	=19	=19	=19	=19	=19	=19	=19	=19	=19	=19	=19	=19	=19	=19	=19	=19	=19	=19	=19	=19	=19
!LO:SIC:s=8D/	!	!	!	!	!	!	!	!	!	!	!	!	!	!	!	!	!	!	!	!	!	!	!	!	!
8Re/	4.r	.	16b/LL	.	.	4.r	.	4.r	.	4.r	.	8B\L	.	(16b/LL	.	(16B\LL	.	8ggL 8b\	.	(16b/LL	.	(16bb\LL	.	4.r	.
.	.	.	16g/	.	.	.	.	.	.	.	.	.	.	16g/	.	16G\	.	.	.	16g/	.	16gg\	.	.	.
8r	.	.	16e/	.	.	.	.	.	.	.	.	8G\	.	16e/	.	16E\	.	8gg 8b\	.	16e/	.	16ee\	.	.	.
.	.	.	16g/	.	.	.	.	.	.	.	.	.	.	16g/	.	16G\	.	.	.	16g/	.	16gg\	.	.	.
8r	.	.	16f#/	.	.	.	.	.	.	.	.	8E\J	.	16f#/	.	16F#\	.	8ggJ 8b\	.	16f#/	.	16ff#\	.	.	.
.	.	.	16e/JJ	.	.	.	.	.	.	.	.	.	.	16e/JJ)	.	16E\JJ)	.	.	.	16e/JJ)	.	16ee\JJ)	.	.	.
*	*	*	*	*	*	*	*	*	*	*	*	*	*	*	*	*	*	*Xtremolo	*	*	*	*	*	*	*
=20	=20	=20	=20	=20	=20	=20	=20	=20	=20	=20	=20	=20	=20	=20	=20	=20	=20	=20	=20	=20	=20	=20	=20	=20	=20
*tremolo	*	*	*	*	*	*	*	*	*	*	*	*	*	*	*	*	*	*	*	*	*	*	*	*	*
!LO:SIC:s=32D/LLL	!	!	!	!	!	!	!	!	!	!	!	!	!	!	!	!	!	!	!	!	!	!	!	!	!
32Re/LLL	4.r	.	4f#/	.	.	4.r	.	4.r	.	4.r	.	4F#\	.	4f#/	.	4F#\	.	16.ff#XLL 16.f#X/	.	4f#/	.	4ff#\	.	(32fff#\LLL	.
!LO:SIC:s=32D/	!	!	!	!	!	!	!	!	!	!	!	!	!	!	!	!	!	!	!	!	!	!	!	!	!
32Re/	.	.	.	.	.	.	.	.	.	.	.	.	.	.	.	.	.	.	.	.	.	.	.	32ggg\	.
!LO:SIC:s=32D/	!	!	!	!	!	!	!	!	!	!	!	!	!	!	!	!	!	!	!	!	!	!	!	!	!
32Re/	.	.	.	.	.	.	.	.	.	.	.	.	.	.	.	.	.	.	.	.	.	.	.	32fff#\	.
!LO:SIC:s=32D/	!	!	!	!	!	!	!	!	!	!	!	!	!	!	!	!	!	!	!	!	!	!	!	!	!
32Re/	.	.	.	.	.	.	.	.	.	.	.	.	.	.	.	.	.	32ff#JJk 32f#/	.	.	.	.	.	32ggg\JJJ	.
*	*	*	*	*	*	*	*	*	*	*	*	*	*	*	*	*	*	*rep	*	*	*	*	*	*rep	*
!LO:SIC:s=32D/	!	!	!	!	!	!	!	!	!	!	!	!	!	!	!	!	!	!	!	!	!	!	!	!	!
32Re/	.	.	.	.	.	.	.	.	.	.	.	.	.	.	.	.	.	16.ff#LL 16.f#/	.	.	.	.	.	32fff#\LLL	.
!LO:SIC:s=32D/	!	!	!	!	!	!	!	!	!	!	!	!	!	!	!	!	!	!	!	!	!	!	!	!	!
32Re/	.	.	.	.	.	.	.	.	.	.	.	.	.	.	.	.	.	.	.	.	.	.	.	32ggg\	.
!LO:SIC:s=32D/	!	!	!	!	!	!	!	!	!	!	!	!	!	!	!	!	!	!	!	!	!	!	!	!	!
32Re/	.	.	.	.	.	.	.	.	.	.	.	.	.	.	.	.	.	.	.	.	.	.	.	32fff#\	.
!LO:SIC:s=32D/	!	!	!	!	!	!	!	!	!	!	!	!	!	!	!	!	!	!	!	!	!	!	!	!	!
32Re/	.	.	.	.	.	.	.	.	.	.	.	.	.	.	.	.	.	32ff#JJk 32f#/	.	.	.	.	.	32ggg\JJJ	.
*	*	*	*	*	*	*	*	*	*	*	*	*	*	*	*	*	*	*Xrep	*	*	*	*	*	*Xrep	*
*	*	*	*	*	*	*	*	*	*	*	*	*	*	*	*	*	*	*rep	*	*	*	*	*	*rep	*
!LO:SIC:s=32D/	!	!	!	!	!	!	!	!	!	!	!	!	!	!	!	!	!	!	!	!	!	!	!	!	!
32Re/	.	.	8f#/	Niech	.	.	.	.	.	.	.	8F#\	.	8f#/	.	8d\	.	16.ff#LL 16.f#/	.	8ff# 8dd\	.	8ff#\	.	32fff#\LLL	.
!LO:SIC:s=32D/	!	!	!	!	!	!	!	!	!	!	!	!	!	!	!	!	!	!	!	!	!	!	!	!	!
32Re/	.	.	.	.	.	.	.	.	.	.	.	.	.	.	.	.	.	.	.	.	.	.	.	32ggg\	.
!LO:SIC:s=32D/	!	!	!	!	!	!	!	!	!	!	!	!	!	!	!	!	!	!	!	!	!	!	!	!	!
32Re/	.	.	.	.	.	.	.	.	.	.	.	.	.	.	.	.	.	.	.	.	.	.	.	32fff#\	.
!LO:SIC:s=32D/JJJ	!	!	!	!	!	!	!	!	!	!	!	!	!	!	!	!	!	!	!	!	!	!	!	!	!
32Re/JJJ	.	.	.	.	.	.	.	.	.	.	.	.	.	.	.	.	.	32ff#JJk 32f#/	.	.	.	.	.	32ggg\JJJ)	.
*	*	*	*	*	*	*	*	*	*	*	*	*	*	*	*	*	*	*Xrep	*	*	*	*	*	*Xrep	*
=21	=21	=21	=21	=21	=21	=21	=21	=21	=21	=21	=21	=21	=21	=21	=21	=21	=21	=21	=21	=21	=21	=21	=21	=21	=21
*rep	*	*	*	*	*	*	*	*	*	*	*	*	*	*	*	*	*	*rep	*	*	*	*	*	*rep	*
!LO:SIC:s=32D/LLL	!	!	!	!	!	!	!	!	!	!	!	!	!	!	!	!	!	!	!	!	!	!	!	!	!
32Re/LLL	4.F#^\	.	(16.f#/LL	na-	.	4.r	.	4.r	.	4.r	.	4.F#^<\	.	(16.f#/LL	.	16.d\LL	.	16.ff#XLL 16.f#X/	.	(16.ff#LL 16.dd\	.	(16.ff#\LL	.	(32fff#\LLL	.
!LO:SIC:s=32D/	!	!	!	!	!	!	!	!	!	!	!	!	!	!	!	!	!	!	!	!	!	!	!	!	!
32Re/	.	.	.	.	.	.	.	.	.	.	.	.	.	.	.	.	.	.	.	.	.	.	.	32ggg\	.
!LO:SIC:s=32D/	!	!	!	!	!	!	!	!	!	!	!	!	!	!	!	!	!	!	!	!	!	!	!	!	!
32Re/	.	.	.	.	.	.	.	.	.	.	.	.	.	.	.	.	.	.	.	.	.	.	.	32fff#\	.
!LO:SIC:s=32D/	!	!	!	!	!	!	!	!	!	!	!	!	!	!	!	!	!	!	!	!	!	!	!	!	!
32Re/	.	.	32g/JJk)	.	.	.	.	.	.	.	.	.	.	32g/JJk)	.	32e\JJk	.	32ff#JJk 32f#/	.	32ggJJk 32ee\)	.	32gg\JJk)	.	32ggg\JJJ	.
!LO:SIC:s=32D/	!	!	!	!	!	!	!	!	!	!	!	!	!	!	!	!	!	!	!	!	!	!	!	!	!
32Re/	.	.	8e/	-sze	.	.	.	.	.	.	.	.	.	8e/L	.	8c#\L	.	16.ff#LL 16.f#/	.	8eeL 8cc#X\	.	8ee\L	.	32fff#\LLL	.
!LO:SIC:s=32D/	!	!	!	!	!	!	!	!	!	!	!	!	!	!	!	!	!	!	!	!	!	!	!	!	!
32Re/	.	.	.	.	.	.	.	.	.	.	.	.	.	.	.	.	.	.	.	.	.	.	.	32ggg\	.
!LO:SIC:s=32D/	!	!	!	!	!	!	!	!	!	!	!	!	!	!	!	!	!	!	!	!	!	!	!	!	!
32Re/	.	.	.	.	.	.	.	.	.	.	.	.	.	.	.	.	.	.	.	.	.	.	.	32fff#\	.
!LO:SIC:s=32D/	!	!	!	!	!	!	!	!	!	!	!	!	!	!	!	!	!	!	!	!	!	!	!	!	!
32Re/	.	.	.	.	.	.	.	.	.	.	.	.	.	.	.	.	.	32ff#JJk 32f#/	.	.	.	.	.	32ggg\JJJ	.
!LO:SIC:s=32D/	!	!	!	!	!	!	!	!	!	!	!	!	!	!	!	!	!	!	!	!	!	!	!	!	!
32Re/	.	.	8e/	cier[[pie]]-	.	.	.	.	.	.	.	.	.	8e/J	.	8c#\J	.	16.ff#LL 16.f#/	.	8eeJ 8cc#\	.	8ee\J	.	32fff#\LLL	.
!LO:SIC:s=32D/	!	!	!	!	!	!	!	!	!	!	!	!	!	!	!	!	!	!	!	!	!	!	!	!	!
32Re/	.	.	.	.	.	.	.	.	.	.	.	.	.	.	.	.	.	.	.	.	.	.	.	32ggg\	.
!LO:SIC:s=32D/	!	!	!	!	!	!	!	!	!	!	!	!	!	!	!	!	!	!	!	!	!	!	!	!	!
32Re/	.	.	.	.	.	.	.	.	.	.	.	.	.	.	.	.	.	.	.	.	.	.	.	32fff#\	.
!LO:SIC:s=32D/JJJ	!	!	!	!	!	!	!	!	!	!	!	!	!	!	!	!	!	!	!	!	!	!	!	!	!
32Re/JJJ	.	.	.	.	.	.	.	.	.	.	.	.	.	.	.	.	.	32ff#JJk 32f#/	.	.	.	.	.	32ggg\JJJ)	.
*Xrep	*	*	*	*	*	*	*	*	*	*	*	*	*	*	*	*	*	*Xrep	*	*	*	*	*	*Xrep	*
=22	=22	=22	=22	=22	=22	=22	=22	=22	=22	=22	=22	=22	=22	=22	=22	=22	=22	=22	=22	=22	=22	=22	=22	=22	=22
*rep	*	*	*	*	*	*	*	*	*	*	*	*	*	*	*	*	*	*rep	*	*	*	*	*	*rep	*
!LO:SIC:s=32D/LLL	!	!	!	!	!	!	!	!	!	!	!	!	!	!	!	!	!	!	!	!	!	!	!	!	!
32Re/LLL	4.F#^\	.	16.e/LL	-pie-	.	4.r	.	4.r	.	4.r	.	4.F#^<\	.	(16.e/LL	.	16.c#\LL	.	16.ff#XLL 16.f#X/	.	(16.eeLL 16.cc#\	.	16.ee\LL	.	(32fff#\LLL	.
!LO:SIC:s=32D/	!	!	!	!	!	!	!	!	!	!	!	!	!	!	!	!	!	!	!	!	!	!	!	!	!
32Re/	.	.	.	.	.	.	.	.	.	.	.	.	.	.	.	.	.	.	.	.	.	.	.	32ggg\	.
!LO:SIC:s=32D/	!	!	!	!	!	!	!	!	!	!	!	!	!	!	!	!	!	!	!	!	!	!	!	!	!
32Re/	.	.	.	.	.	.	.	.	.	.	.	.	.	.	.	.	.	.	.	.	.	.	.	32fff#\	.
!LO:SIC:s=32D/	!	!	!	!	!	!	!	!	!	!	!	!	!	!	!	!	!	!	!	!	!	!	!	!	!
32Re/	.	.	32f#/JJk	.	.	.	.	.	.	.	.	.	.	32f#/JJk)	.	32d\JJk	.	32ff#JJk 32f#/	.	32ff#JK 32dd\)	.	32ff#\JJk	.	32ggg\JJJ	.
!LO:SIC:s=32D/	!	!	!	!	!	!	!	!	!	!	!	!	!	!	!	!	!	!	!	!	!	!	!	!	!
32Re/	.	.	8d/	-nia	.	.	.	.	.	.	.	.	.	8d/	.	8B\	.	16.ff#LL 16.f#/	.	8ddJ 8b\	.	8dd\	.	32fff#\LLL	.
!LO:SIC:s=32D/	!	!	!	!	!	!	!	!	!	!	!	!	!	!	!	!	!	!	!	!	!	!	!	!	!
32Re/	.	.	.	.	.	.	.	.	.	.	.	.	.	.	.	.	.	.	.	.	.	.	.	32ggg\	.
!LO:SIC:s=32D/	!	!	!	!	!	!	!	!	!	!	!	!	!	!	!	!	!	!	!	!	!	!	!	!	!
32Re/	.	.	.	.	.	.	.	.	.	.	.	.	.	.	.	.	.	.	.	.	.	.	.	32fff#\	.
!LO:SIC:s=32D/	!	!	!	!	!	!	!	!	!	!	!	!	!	!	!	!	!	!	!	!	!	!	!	!	!
32Re/	.	.	.	.	.	.	.	.	.	.	.	.	.	.	.	.	.	32ff#JJk 32f#/	.	.	.	.	.	32ggg\JJJ	.
!LO:SIC:s=32D/	!	!	!	!	!	!	!	!	!	!	!	!	!	!	!	!	!	!	!	!	!	!	!	!	!
32Re/	.	.	16.d/LL	za-	.	.	.	.	.	.	.	.	.	(16.d/LL	.	16.B\LL	.	16.ff#LL 16.f#/	.	16.ddLL 16.b\	.	16.bb\LL	.	32fff#\LLL	.
!LO:SIC:s=32D/	!	!	!	!	!	!	!	!	!	!	!	!	!	!	!	!	!	!	!	!	!	!	!	!	!
32Re/	.	.	.	.	.	.	.	.	.	.	.	.	.	.	.	.	.	.	.	.	.	.	.	32ggg\	.
!LO:SIC:s=32D/	!	!	!	!	!	!	!	!	!	!	!	!	!	!	!	!	!	!	!	!	!	!	!	!	!
32Re/	.	.	.	.	.	.	.	.	.	.	.	.	.	.	.	.	.	.	.	.	.	.	.	32fff#\	.
!LO:SIC:s=32D/JJJ	!	!	!	!	!	!	!	!	!	!	!	!	!	!	!	!	!	!	!	!	!	!	!	!	!
32Re/JJJ	.	.	32e/JJk	.	.	.	.	.	.	.	.	.	.	32e/JJk)	.	32c#\JJk	.	32ff#JJk 32f#/	.	32eeJJk 32cc#\	.	32ccc#\JJk	.	32ggg\JJJ)	.
*Xrep	*	*	*	*	*	*	*	*	*	*	*	*	*	*	*	*	*	*Xrep	*	*	*	*	*	*Xrep	*
*Xtremolo	*	*	*	*	*	*	*	*	*	*	*	*	*	*	*	*	*	*	*	*	*	*	*	*	*
!!LO:PB:g=original
=23	=23	=23	=23	=23	=23	=23	=23	=23	=23	=23	=23	=23	=23	=23	=23	=23	=23	=23	=23	=23	=23	=23	=23	=23	=23
!	!	!	!	!	!	!	!	!	!	!	!	!	!	!LO:N:vis=16.	!	!	!	!	!	!	!	!	!	!	!
4.r	4F#\	.	(16f#/LL	-mie-	.	4.r	.	4.r	.	4.r	.	4F#\	.	(16f#/LL	.	(16d\LL	.	16.ff#XLL 16.f#X/	.	(16ff#LL 16dd\	.	(16ddd\LL	.	(16fff#\LL	.
.	.	.	16e/JJ)	.	.	.	.	.	.	.	.	.	.	16e/JJ)	.	16c#\JJ)	.	.	.	16eeJJ 16cc#\)	.	16ccc#\JJ)	.	16eee\JJ)	.
.	.	.	.	.	.	.	.	.	.	.	.	.	.	.	.	.	.	32ff#JJk 32f#/	.	.	.	.	.	.	.
*	*	*	*	*	*	*	*	*	*	*	*	*	*	*	*	*	*	*rep	*	*	*	*	*	*	*
.	.	.	8d/	-nią	.	.	.	.	.	.	.	.	.	8d/L	.	8B\L	.	16.ff#LL 16.f#/	.	8ddL 8b\	.	8bb\L	.	8ddd\L	.
.	.	.	.	.	.	.	.	.	.	.	.	.	.	.	.	.	.	32ff#JJk 32f#/	.	.	.	.	.	.	.
*	*	*	*	*	*	*	*	*	*	*	*	*	*	*	*	*	*	*Xrep	*	*	*	*	*	*	*
*	*	*	*	*	*	*	*	*	*	*	*	*	*	*	*	*	*	*rep	*	*	*	*	*	*	*
.	8F#\	.	8c#/	się	.	.	.	.	.	.	.	8F#\	.	8c#/J	.	8A#X\J	.	16.ff#LL 16.f#/	.	8cc#J 8a#X\	.	8aa#X\J	.	8ccc#\J	.
.	.	.	.	.	.	.	.	.	.	.	.	.	.	.	.	.	.	32ff#JJk 32f#/	.	.	.	.	.	.	.
*	*	*	*	*	*	*	*	*	*	*	*	*	*	*	*	*	*	*Xrep	*	*	*	*	*	*	*
=24	=24	=24	=24	=24	=24	=24	=24	=24	=24	=24	=24	=24	=24	=24	=24	=24	=24	=24	=24	=24	=24	=24	=24	=24	=24
4.r	8BB/	.	8B/	w_śmiech	.	4.r	.	4.r	.	4.r	.	8BB/	.	8B/	.	8B\	.	8ff#X 8b\	.	8dd 8b\	.	8bb\	.	8bb\	.
!	!	!	!LO:TX:a:t=/&colon; razem wszyscy &colon;/	!	!	!	!	!	!	!	!	!	!	!	!	!	!	!	!	!	!	!	!	!	!
.	8r	.	8r	.	.	.	.	.	.	.	.	8r	.	8r	.	8r	.	4r	.	8r	.	8r	.	8r	.
.	8r	.	8r	.	.	.	.	.	.	.	.	8r	.	8r	.	8r	.	.	.	8r	.	8r	.	8r	.
=25	=25	=25	=25	=25	=25	=25	=25	=25	=25	=25	=25	=25	=25	=25	=25	=25	=25	=25	=25	=25	=25	=25	=25	=25	=25
*	*	*	*	*	*	*	*	*	*	*	*	*	*	*	*	*	*	*^	*	*^	*	*	*	*	*
!LO:SIC:s=8AA\	!	!	!	!	!	!	!	!	!	!	!	!	!	!	!	!	!	!	!	!	!	!	!	!	!	!	!
8Re\	8AA/	.	8r	.	.	8e 8A\	.	8g 8A/	.	8cc# 8e/	.	8AA/	.	8c#/	.	8An\	.	8ee/	8cc#X\	.	8cc# 8g/	8ryy	.	8ee\	.	8ccc#\	.
4r	8r	.	8r	.	.	8r	.	8r	.	8r	.	8r	.	8r	.	8r	.	8r	8ryy	.	8r	8ryy	.	8r	.	8r	.
!	!	!	!	!	!	!	!	!	!	!	!LO:DY:rj	!	!	!	!	!	!	!	!	!	!	!	!LO:DY:rj:a	!	!	!	!LO:DY:rj
.	8r	.	(8a/	O	.	8r	.	(8a/	.	(8a/	f	8r	.	(8a/	.	8r	.	8r	8ryy	.	(8a/	8a\	f	(8aa\	.	(8aa\	f
*	*	*	*	*	*	*	*	*	*	*	*	*	*	*	*	*	*	*v	*v	*	*	*	*	*	*	*	*
*	*	*	*	*	*	*	*	*	*	*	*	*	*	*	*	*	*	*	*	*v	*v	*	*	*	*	*
=26	=26	=26	=26	=26	=26	=26	=26	=26	=26	=26	=26	=26	=26	=26	=26	=26	=26	=26	=26	=26	=26	=26	=26	=26	=26
!LO:SIC:s=8D/L	!	!LO:DY:rj	!	!	!	!	!	!	!	!	!	!	!	!	!	!	!	!	!LO:DY:rj	!	!	!	!	!	!
8Re/L	8D'^\L	f	8ddL 8f#'/)	du-	.	8aL 8d\	.	8f#/L)	.	8dd\L)	.	8D\L	.	8dd\L)	.	8D\L	.	8dd^<\L	f	8ddL 8f#/)	.	8ff#\L)	.	8ddd\L)	.
!LO:SIC:s=8D/J	!	!	!	!	!	!	!	!	!	!	!	!	!	!	!	!	!	!	!	!	!	!	!	!	!
8Re/J	8D'^\J	.	8ddJ 8f#'/	-chy	.	8aJ 8d\	.	8f#'/J	.	8dd'\J	.	8D\J	.	8dd'\J	.	8d\J	.	8dd^<\J	.	8ddJ 8f#'/	.	8ff#'\J	.	8ddd'\J	.
8r	8r	.	(16f#LL 16d/	i	.	8r	.	(16d/LL	.	(16f#/LL	.	8r	.	(16f#/LL	.	8r	.	8r	.	(16f#LL 16d/	.	(16dd\LL	.	(16ff#\LL	.
.	.	.	16gJJ 16e/)	.	.	.	.	16e/JJ)	.	16g/JJ)	.	.	.	16g/JJ)	.	.	.	.	.	16gJJ 16e/)	.	16ee\JJ)	.	16gg\JJ)	.
=27	=27	=27	=27	=27	=27	=27	=27	=27	=27	=27	=27	=27	=27	=27	=27	=27	=27	=27	=27	=27	=27	=27	=27	=27	=27
!LO:SIC:s=8D/L	!	!	!	!	!	!	!	!	!	!	!	!	!	!	!	!	!	!	!	!	!	!	!	!	!
8Re/L	8D'^\L	.	4a 4f#/	cie-	.	8aL 8d\	.	4f#/	.	4a/	.	8D\L	.	4a/	.	8D\L	.	8dd^<\L	.	4a 4f#/	.	4ff#\	.	4aa\	.
!LO:SIC:s=8D/J	!	!	!	!	!	!	!	!	!	!	!	!	!	!	!	!	!	!	!	!	!	!	!	!	!
8Re/J	8D'^\J	.	.	.	.	8aJ 8d\	.	.	.	.	.	8D\J	.	.	.	8d\J	.	8dd^<\J	.	.	.	.	.	.	.
8r	8r	.	8b 8g/	-nia	.	8r	.	8g/	.	8b/	.	8r	.	8b/	.	8r	.	8r	.	8b 8g/	.	8gg\	.	8bb\	.
=28	=28	=28	=28	=28	=28	=28	=28	=28	=28	=28	=28	=28	=28	=28	=28	=28	=28	=28	=28	=28	=28	=28	=28	=28	=28
!	!	!	!LO:TX:t=P:problem:belka poprawiona na chorągiewkę	!	!	!	!	!	!	!	!	!	!	!	!	!	!	!	!	!	!	!	!	!	!
!LO:SIC:s=8AA\L	!LO:TX:t=P:problem:mixed beam	!	!	!	!	!	!	!	!	!	!	!	!	!	!	!LO:TX:t=P:problem:mixed beam	!	!	!	!	!	!	!	!	!
8Re\L	8AA/L	.	16a|> 16f#/	Tu	.	8aL 8A\	.	(16f#/LL	.	(16a/LL	.	8AA/L	.	(16a/LL	.	8AA/L	.	4.r	.	16aLL 16f#/	.	16ff#\LL	.	(16aa\LL	.
!	!	!	!LO:TX:t=P:problem:belka poprawiona na chorągiewkę	!	!	!	!	!	!	!	!	!	!	!	!	!	!	!	!	!	!	!	!	!	!
.	.	.	16g|> 16e/	w_pie-	.	.	.	16e/JJ)	.	16g/JJ)	.	.	.	16g/JJ)	.	.	.	.	.	16gJJ 16e/	.	16ee\JJ	.	16gg\JJ)	.
!LO:SIC:s=8AA\J	!	!	!	!	!	!	!	!	!	!	!	!	!	!	!	!	!	!	!	!	!	!	!	!	!
8Re\J	8A\J	.	8e 8c#/	-cza-	.	8aJ 8A\	.	8c#/L	.	8e/L	.	8AA/J	.	8e/L	.	8A\J	.	.	.	8eL 8c#/	.	8cc#\L	.	8ee\L	.
!	!	!	!	!	!	!	!	!	!	!	!	!	!	!LO:TX:t=P:problem:8a poprawione na 8b	!	!	!	!	!	!	!	!	!	!	!
8r	8r	.	8b 8g/	-rach	.	8r	.	8g/J	.	8b/J	.	8r	.	8b/J	.	8r	.	.	.	8bJ 8g/	.	8gg\J	.	8bb\J	.
!!LO:PB:g=original
=29	=29	=29	=29	=29	=29	=29	=29	=29	=29	=29	=29	=29	=29	=29	=29	=29	=29	=29	=29	=29	=29	=29	=29	=29	=29
*	*	*	*	*	*	*	*	*	*	*	*	*	*	*	*	*	*	*^	*	*^	*	*	*	*	*
4.ryy	8D\L	.	4a 4f#/	tych	.	4d\	.	8f#/L	.	(16g#X\LL	.	8D\L	.	(16g#X/LL	.	8D\L	.	8r	8ryy	.	16g#X/LL	8f#\L	.	8ff#\L	.	(16gg#X\LL	.
.	.	.	.	.	.	.	.	.	.	16a\)	.	.	.	16a/)	.	.	.	.	.	.	16a/	.	.	.	.	16aa\)	.
.	8d\J	.	.	.	.	.	.	16d/L	.	16ff#'\	.	8D\J	.	16f#'/	.	8d\J	.	8dd/	8dd\	.	16ff#/	16d\L	.	16dd\L	.	16fff#'\	.
.	.	.	.	.	.	.	.	16f#/JJ	.	16dd'\JJ	.	.	.	16d'/JJ	.	.	.	.	.	.	16dd/JJ	16f#\JJ	.	16ff#\JJ	.	16ddd'\JJ	.
!	!	!	!	!	!	!	!	!	!	!	!	!	!	!	!	!	!	!	!	!	!LO:TX:t=P:problem:cl II:8r poprawiona na 8a	!	!	!	!	!	!
.	8r	.	8a/	Niech	.	8r	.	(8a/	.	(8a/	.	8r	.	(8a/	.	8r	.	8r	8ryy	.	8a/	8a\	.	(8a/	.	(8aa\	.
*	*	*	*	*	*	*	*	*	*	*	*	*	*	*	*	*	*	*v	*v	*	*	*	*	*	*	*	*
*	*	*	*	*	*	*	*	*	*	*	*	*	*	*	*	*	*	*	*	*v	*v	*	*	*	*	*
=30	=30	=30	=30	=30	=30	=30	=30	=30	=30	=30	=30	=30	=30	=30	=30	=30	=30	=30	=30	=30	=30	=30	=30	=30	=30
!	!	!LO:DY:rj	!	!	!	!	!	!	!	!	!	!	!	!	!	!	!	!	!	!	!	!	!	!	!
4.ryy	8D\L	f	8dd 8f#/	je-	mo-	8d\L	.	8f#/L)	.	8dd\L)	.	8D\L	.	8dd\L)	.	8D\L	.	8dd\L	.	8ddL 8f#/	.	8ff#\L)	.	8ddd\L)	.
.	8D\J	.	8dd 8f#/	-go	-je	8d\J	.	8f#/J	.	8dd'\J	.	8D\J	.	8dd'\J	.	8d\J	.	8dd\J	.	8ddJ 8f#/	.	8ff#'\J	.	8ddd'\J	.
.	8r	.	16f#LL 16d/	ma-	cier-	8r	.	(16d/LL	.	(16f#/LL	.	8r	.	(16f#/LL	.	8r	.	8r	.	(16f#LL 16d/	.	(16dd\LL	.	(16ff#\LL	.
.	.	.	16gJJ 16e/	.	.	.	.	16e/JJ	.	16g/JJ)	.	.	.	16g/JJ)	.	.	.	.	.	16gJJ 16e/)	.	16ee\JJ	.	16gg\JJ	.
=31	=31	=31	=31	=31	=31	=31	=31	=31	=31	=31	=31	=31	=31	=31	=31	=31	=31	=31	=31	=31	=31	=31	=31	=31	=31
4.ryy	8D\L	.	4a 4f#/	-rze-	-pie-	8d\L	.	4f#/)	.	4a/	.	8D\L	.	4a/	.	8D\L	.	8dd\L	.	4a 4f#/	.	4ff#\)	.	4aa\)	.
.	8D\J	.	.	.	.	8d\J	.	.	.	.	.	8D\J	.	.	.	8d\J	.	8dd\J	.	.	.	.	.	.	.
.	8r	.	8b 8g/	-nia	-nia	8r	.	8g/	.	8b/	.	8r	.	8b/	.	8r	.	8r	.	8b 8g/	.	8gg\	.	8bb\	.
=32	=32	=32	=32	=32	=32	=32	=32	=32	=32	=32	=32	=32	=32	=32	=32	=32	=32	=32	=32	=32	=32	=32	=32	=32	=32
*	*	*	*	*	*	*	*	*	*	*	*	*	*	*	*	*	*	*^	*	*	*	*	*	*	*
!	!	!	!LO:TX:t=P:problem:belka poprawiona na chorągiewkę	!	!	!	!	!	!	!	!	!	!	!	!	!	!	!	!	!	!	!	!	!	!	!
!	!LO:TX:t=P:problem:mixed beam	!	!	!	!	!	!	!	!	!	!	!	!	!	!	!LO:TX:t=P:problem:mixed beam	!	!	!	!	!	!	!	!	!	!
4.ryy	8AA/L	.	16a|> 16f#/	za-	.	8A/L	.	(16f#/LL	.	(16a/LL	.	8AA/	.	(16a/LL	.	8AA/L	.	8r	8ryy	.	(16aLL 16f#/	.	(16ff#\LL	.	(16aa\LL	.
!	!	!	!LO:TX:t=P:problem:belka poprawiona na chorągiewkę	!	!	!	!	!	!	!	!	!	!	!	!	!	!	!	!	!	!	!	!	!	!	!
.	.	.	16g|> 16e/	-mie-	.	.	.	16e/JJ)	.	16g/JJ)	.	.	.	16g/JJ)	.	.	.	.	.	.	16gJJ 16e/)	.	16ee\JJ)	.	16gg\JJ)	.
!	!	!	!	!	!	!	!	!	!	!	!	!	!	!	!	!	!	!	!	!	!LO:SIC:n=1:v:s=8e	!	!	!	!	!
!	!	!	!	!	!	!	!	!	!	!	!	!	!	!	!	!	!	!	!	!	!LO:SIC:n=2:v:s=8c#	!	!	!	!	!
.	8A\	.	8e 8c#/	-nią	.	8A/J	.	8c#/	.	8e/	.	8r	.	8e/	.	8A\	.	8ee/L	8cc#X\L	.	8f#L 8d/	.	8cc#\L	.	8ee\L	.
!	!	!	!	!	!	!	!	!	!	!	!	!	!LO:DY:rj	!	!LO:DY:rj	!	!LO:DY:rj	!	!	!	!	!LO:DY:rj	!	!LO:DY:rj	!	!LO:DY:rj
.	8AA/J	.	8cc# 8e/	się	.	8e\	.	8g 8A/	.	8cc# 8e/	.	8AA/	f	8a/	f	8AA/J	f	8ee/J	8cc#\J	.	8cc#J 8g/	f	8ee\J	f	8ccc#\J	f
=33	=33	=33	=33	=33	=33	=33	=33	=33	=33	=33	=33	=33	=33	=33	=33	=33	=33	=33	=33	=33	=33	=33	=33	=33	=33	=33
*	*	*	*^	*	*	*	*	*	*	*	*	*	*	*	*	*	*	*	*	*	*	*	*	*	*	*
4.ryy	8D\	.	8dd 8f#/	8ryy	w_smiech	.	8d\	.	8f# 8A/	.	8dd 8d/	.	8D/	.	8d/	.	8D\	.	8dd/	8dd\	.	8dd 8f#/	.	8ff#\	.	8ddd\	.
.	8r	.	8r	8ryy	.	.	8r	.	8r	.	8r	.	8r	.	8r	.	8r	.	8r	8ryy	.	8r	.	8r	.	8r	.
!	!	!LO:DY:rj	!LO:TX:a:t=Miler	!	!	!	!	!	!	!	!	!	!	!	!	!	!	!	!	!	!	!	!	!	!	!	!
.	(16A\LL	p	8ree	16a\LL	.	O	8r	.	8r	.	8r	.	8r	.	8r	.	(16A\LL	.	8r	8ryy	.	8r	.	8r	.	8r	.
.	16B-X\JJ)	.	.	16b-X\JJ	.	.	.	.	.	.	.	.	.	.	.	.	16B-X\JJ)	.	.	.	.	.	.	.	.	.	.
*	*	*	*	*	*	*	*	*	*	*	*	*	*	*	*	*	*	*	*v	*v	*	*	*	*	*	*	*
=34	=34	=34	=34	=34	=34	=34	=34	=34	=34	=34	=34	=34	=34	=34	=34	=34	=34	=34	=34	=34	=34	=34	=34	=34	=34	=34
!	!	!	!	!	!	!	!	!	!	!LO:DY:rj	!	!	!	!	!	!	!	!	!	!	!	!	!	!	!	!
4.ryy	8A\L	.	8ree	8a\	.	du-	8eL 8A\	.	8gL 8A/	p	8r	.	4.r	.	4.r	.	(8A\L	.	4.r	.	4.r	.	4.r	.	4.r	.
.	8C#\J	.	8ree	8c#\	.	-chy	8eJ 8A\	.	8gJ 8A/	.	8r	.	.	.	.	.	8C#\J)	.	.	.	.	.	.	.	.	.
!	!	!	!LO:TX:a:t=razem	!	!	!	!	!	!	!	!	!	!	!	!	!	!	!	!	!	!	!	!	!	!	!
.	8r	.	8a/	8rc	O	.	8r	.	8r	.	(16g#X/LL	.	.	.	.	.	8r	.	.	.	.	.	.	.	.	.
.	.	.	.	.	.	.	.	.	.	.	16a/JJ)	.	.	.	.	.	.	.	.	.	.	.	.	.	.	.
!!LO:PB:g=original
=35	=35	=35	=35	=35	=35	=35	=35	=35	=35	=35	=35	=35	=35	=35	=35	=35	=35	=35	=35	=35	=35	=35	=35	=35	=35	=35
!	!	!	!LO:TX:a:t=razem.	!	!	!	!	!	!	!	!	!	!	!	!	!	!	!	!	!	!	!	!	!	!	!
4.ryy	8AA/L	.	8cc# 8e/	4ryy	du-	.	8eL 8A\	.	8gL 8A/	.	8cc#L 8e/	.	4.r	.	4.r	.	8r	.	4.r	.	4.r	.	4.r	.	4.r	.
.	8AA/J	.	8cc#|> 8e/	.	-chy	.	8eJ 8A\	.	8gJ 8A/	.	8cc#J 8e/	.	.	.	.	.	8r	.	.	.	.	.	.	.	.	.
!	!	!	!LO:TX:a:t=miler	!	!	!	!	!	!	!	!	!	!	!	!	!	!	!	!	!	!	!	!	!	!	!
.	(16A\LL	.	8ree	16a\LL	.	I	8r	.	8r	.	8r	.	.	.	.	.	(16A\LL	.	.	.	.	.	.	.	.	.
.	16Bn\JJ)	.	.	16bn\JJ	.	.	.	.	.	.	.	.	.	.	.	.	16Bn\JJ	.	.	.	.	.	.	.	.	.
=36	=36	=36	=36	=36	=36	=36	=36	=36	=36	=36	=36	=36	=36	=36	=36	=36	=36	=36	=36	=36	=36	=36	=36	=36	=36	=36
4.ryy	8A\L	.	8ree	8a\	.	du-	8d\L	.	8f#L 8A/	.	8r	.	4.r	.	4.r	.	8A\L)	.	4.r	.	4.r	.	4.r	.	4.r	.
.	8D\J	.	8ree	8d\	.	-chy	8d\J	.	8f#J 8A/	.	8r	.	.	.	.	.	8D\J	.	.	.	.	.	.	.	.	.
.	8r	.	8a/	8rc	i	.	8r	.	8r	.	(16g#X/LL	.	.	.	.	.	8r	.	.	.	.	.	.	.	.	.
.	.	.	.	.	.	.	.	.	.	.	16a/JJ)	.	.	.	.	.	.	.	.	.	.	.	.	.	.	.
*	*	*	*v	*v	*	*	*	*	*	*	*	*	*	*	*	*	*	*	*	*	*	*	*	*	*	*
=37	=37	=37	=37	=37	=37	=37	=37	=37	=37	=37	=37	=37	=37	=37	=37	=37	=37	=37	=37	=37	=37	=37	=37	=37	=37
*	*	*	*	*	*	*	*	*	*	*	*	*	*	*	*	*	*	*	*	*^	*	*	*	*	*
4.ryy	8D\L	.	8dd 8f#/	cie-	.	8d\L	.	8f#L 8A/	.	8dd\L	.	4.r	.	8r	.	4.r	.	4.r	.	8r	8ryy	.	8r	.	8r	.
.	8D\J	.	8dd 8f#/	-nia	.	8d\J	.	8f#J 8A/	.	8dd\J	.	.	.	8r	.	.	.	.	.	8r	8ryy	.	8r	.	8r	.
!	!	!	!	!	!	!	!	!	!	!	!LO:DY:rj	!	!	!	!	!	!	!	!	!	!	!	!	!	!	!
.	8r	.	8a/	niech	.	8r	.	8r	.	(8a/	f	.	.	(8a/	.	.	.	.	.	8a/	8a\	.	(8aa\	.	(8aa\	.
*	*	*	*	*	*	*	*	*	*	*	*	*	*	*	*	*	*	*	*	*v	*v	*	*	*	*	*
=38	=38	=38	=38	=38	=38	=38	=38	=38	=38	=38	=38	=38	=38	=38	=38	=38	=38	=38	=38	=38	=38	=38	=38	=38	=38
*	*	*	*	*^	*	*	*	*	*	*	*	*	*	*	*	*	*	*	*	*	*	*	*	*	*
!	!	!LO:DY:rj	!	!	!	!	!	!LO:DY:rj	!	!LO:DY:rj	!	!	!	!	!	!	!	!LO:DY:rj	!	!LO:DY:rj	!	!	!	!	!	!
4.ryy	8D\L	f	8dd 8f#/	je-	.	mo-	8aL 8d\	f	8f#/L	f	8dd\L)	.	8D\L	.	8dd'\L)	.	8D\L	f	8dd\L	f	8ddL 8f#/	.	8ff#\L)	.	8ddd\L)	.
.	8D\J	.	8dd 8f#/	-go	.	-je	8aJ 8d\	.	8f#/J	.	8dd'\J	.	8D\J	.	8dd'\J	.	8d\J	.	8dd\J	.	8ddJ 8f#/	.	8ff#'\J	.	8ddd'\J	.
*	*	*	*	*	*above	*	*	*	*	*	*	*	*	*	*	*	*	*	*	*	*	*	*	*	*	*
.	8r	.	16f#LL 16d/	cier-	ma-	cier-	8r	.	(16d/LL	.	(16f#/LL	.	8r	.	16f#/LL	.	8r	.	8r	.	(16f#LL 16d/	.	(16dd\LL	.	(16ff#\LL	.
.	.	.	16gJJ 16e/	.	.	.	.	.	16e/JJ	.	16g/JJ)	.	.	.	16g/JJ	.	.	.	.	.	16gJJ 16e/	.	16ee\JJ	.	16gg\JJ	.
=39	=39	=39	=39	=39	=39	=39	=39	=39	=39	=39	=39	=39	=39	=39	=39	=39	=39	=39	=39	=39	=39	=39	=39	=39	=39	=39
4.ryy	8D\L	.	4a 4f#/	-pie-	-rze-	.	8aL 8d\	.	4f#/)	.	4a/	.	8D\L	.	4a/	.	8D\L	.	8dd\L	.	4a 4f#/)	.	4ff#\)	.	4aa\)	.
.	8D\J	.	.	.	.	.	8aJ 8d\	.	.	.	.	.	8D\J	.	.	.	8d\J	.	8dd\J	.	.	.	.	.	.	.
.	8r	.	8b 8g/	-nia	-nia	.	8r	.	8g/	.	8b/	.	8r	.	8b/	.	8r	.	8r	.	8b 8g/	.	8gg\	.	8bb\	.
*	*	*	*	*v	*v	*	*	*	*	*	*	*	*	*	*	*	*	*	*	*	*	*	*	*	*	*
=40	=40	=40	=40	=40	=40	=40	=40	=40	=40	=40	=40	=40	=40	=40	=40	=40	=40	=40	=40	=40	=40	=40	=40	=40	=40
*	*	*	*	*below	*	*	*	*	*	*	*	*	*	*	*	*	*	*	*	*	*	*	*	*	*
!	!LO:TX:t=P:problem:mixed beam	!	!	!	!	!	!	!	!	!	!	!	!	!	!	!LO:TX:t=P:problem:mixed beam	!	!	!	!	!	!	!	!	!
4.ryy	8AA/L	.	16a 16f#/	za-	.	8aL 8A\	.	16f#/LL	.	(16a/LL	.	8AA/L	.	16a/LL	.	8AA/L	.	4.r	.	16aLL 16f#/	.	16ff#\LL	.	(16aa\LL	.
.	.	.	16g 16e/	-mie-	.	.	.	16e/JJ	.	16g/JJ	.	.	.	16g/JJ	.	.	.	.	.	16gJJ 16e/	.	16ee\JJ	.	16gg\JJ)	.
!	!	!	!LO:N:vis=4	!	!	!	!	!	!	!	!	!	!	!	!	!	!	!	!	!	!	!	!	!	!
.	8A\J	.	8e 8c#/	-nią	.	8aJ 8A\	.	8c#/L	.	8e/L)	.	8AA/J	.	8e/L	.	8A\J	.	.	.	8eL 8c#/	.	8cc#\L	.	8cc#\L	.
!	!	!	!	!	!	!	!	!	!	!	!	!	!	!	!	!	!	!	!	!LO:SIC:v:n=1:s=8b	!	!	!	!	!
.	8r	.	8b 8g/	się	.	8r	.	8g/J	.	8b/J	.	8r	.	8b/J	.	8r	.	.	.	8cc#J 8g/	.	8gg\J	.	8bb\J	.
=41	=41	=41	=41	=41	=41	=41	=41	=41	=41	=41	=41	=41	=41	=41	=41	=41	=41	=41	=41	=41	=41	=41	=41	=41	=41
*	*	*	*	*	*	*	*	*	*	*	*	*	*	*	*	*	*	*	*	*^	*	*	*	*	*
!	!	!	!	!	!	!LO:TX:t=P:problem:mixed beam	!	!	!	!	!	!	!	!	!	!	!	!	!	!	!	!	!	!	!	!
4.ryy	8D\L	.	4a 4f#/	w_smiech	.	8d\L	.	4f#/	.	(16g#X\LL	.	8D\L	.	4a/	.	8D\L	.	4.r	.	4dd 4f#/	4ryy	.	8ff#\L	.	(16gg#X\LL	.
.	.	.	.	.	.	.	.	.	.	16a\)	.	.	.	.	.	.	.	.	.	.	.	.	.	.	16aa\)	.
.	8d\J	.	.	.	.	8D/J	.	.	.	16ff#'\	.	8D\J	.	.	.	8d\J	.	.	.	.	.	.	16dd\L	.	16fff#'\	.
.	.	.	.	.	.	.	.	.	.	16dd'\JJ	.	.	.	.	.	.	.	.	.	.	.	.	16ff#\JJ	.	16ddd'\JJ	.
!	!	!	!	!	!	!	!	!	!	!LO:TX:t=P:problem:brak początku łuku	!	!	!	!	!	!	!	!	!	!LO:TX:t=P:problem:brak początku łuku	!LO:TX:b:t=P:problem:brak początku łuku	!	!LO:TX:t=P:problem:brak początku łuku	!	!LO:TX:t=P:problem:brak początku łuku	!
.	8r	.	8a/	niech	.	8r	.	8r	.	(8a/	.	8r	.	8a/	.	8r	.	.	.	(8a/	(8a\	.	(8aa\	.	(8aa'\	.
*	*	*	*	*	*	*	*	*	*	*	*	*	*	*	*	*	*	*	*	*v	*v	*	*	*	*	*
!!LO:PB:g=original
=42	=42	=42	=42	=42	=42	=42	=42	=42	=42	=42	=42	=42	=42	=42	=42	=42	=42	=42	=42	=42	=42	=42	=42	=42	=42
!	!	!	!	!	!	!	!	!LO:TX:t=P:problem:takty nr 42-46 zapisane w partii trb	!	!	!	!LO:TX:t=P:problem:takty nr 42-46 zapisane w partii vl II	!	!LO:TX:t=P:problem:takty nr 42-46 zapisane w partii vl I	!	!	!	!	!	!	!	!	!	!	!
!	!	!	!	!	!	!LO:TX:a:t=Viola	!	!LO:TX:t=P:problem:łuk	!	!LO:TX:t=P:problem:takty nr 42-46 zapisane w partii tr	!	!LO:TX:a:t=Trombone	!	!LO:TX:a:t=Tromba	!	!	!	!	!	!LO:TX:t=P:problem:łuk (dolny dźwięk)	!	!	!	!	!
4.ryy	8D\L	.	8dd 8f#/	je-	mo-	8aL 8d\	.	8f#/L	.	8dd\L)	.	8D\L	.	8dd\L	.	8D\L	.	8dd\L	.	8ddL 8f#/))	.	8ff#\L)	.	8ddd\L)	.
.	8D\J	.	8dd 8f#/	-go	-je	8aJ 8d\	.	8f#'/J	.	8dd'\J	.	8D\J	.	8dd\J	.	8d\J	.	8dd\J	.	8ddJ 8f#'/	.	8ff#'\J	.	8ddd'\J	.
.	8r	.	(16f#LL 16d/	ma-	cier-	8r	.	(16d/LL	.	(16f#/LL	.	8r	.	(16f#/LL	.	8r	.	8r	.	(16f#LL 16d/	.	(16dd\LL	.	(16ff#\LL	.
.	.	.	16gJJ 16e/)	.	.	.	.	16e/JJ	.	16g/JJ)	.	.	.	16g/JJ)	.	.	.	.	.	16gJJ 16e/	.	16ee\JJ	.	16gg\JJ	.
=43	=43	=43	=43	=43	=43	=43	=43	=43	=43	=43	=43	=43	=43	=43	=43	=43	=43	=43	=43	=43	=43	=43	=43	=43	=43
4.ryy	8D\L	.	4a 4f#/	-rze-	-pie-	8aL 8d\	.	4f#/)	.	4a/	.	8D\L	.	4a/	.	8D\L	.	8dd\L	.	4a 4f#/)	.	4ff#\)	.	4aa\)	.
.	8D\J	.	.	.	.	8aJ 8d\	.	.	.	.	.	8D\J	.	.	.	8d\J	.	8dd\J	.	.	.	.	.	.	.
.	8r	.	8b 8g/	-nia	-nia	8r	.	8g/	.	8b/	.	8r	.	8b/	.	8r	.	8r	.	8b 8g/	.	8gg\	.	8bb\	.
=44	=44	=44	=44	=44	=44	=44	=44	=44	=44	=44	=44	=44	=44	=44	=44	=44	=44	=44	=44	=44	=44	=44	=44	=44	=44
*	*	*	*^	*	*	*	*	*	*	*	*	*	*	*	*	*	*	*	*	*	*	*	*	*	*
!	!LO:TX:t=P:problem:mixed beam	!	!	!	!	!	!	!	!	!	!	!	!	!	!	!	!LO:TX:t=P:problem:mixed beam	!	!	!	!	!	!	!	!	!
4.ryy	8AA/L	.	16a/LL|	(16f#\	za-	.	8A/L	.	(16f#/LL	.	(16a/LL	.	8AA/	.	(16a/LL	.	8AA/L	.	8r	.	(16aLL 16f#/	.	(16ff#\LL	.	(16aa\LL	.
.	.	.	16g/JJ|	16e\)	-mie-	.	.	.	16e/JJ	.	16g/JJ)	.	.	.	16g/JJ)	.	.	.	.	.	16gJJ 16e/)	.	16ee\JJ)	.	16gg\JJ)	.
.	8A\	.	8e 8c#/	8ryy	-nią	.	8A/J	.	8c#/)	.	8e/	.	8r	.	8e/	.	8A\	.	8eeL 8cc#X\	.	8e 8c#/	.	8cc#\	.	8ee\	.
!	!	!	!	!	!	!	!	!	!	!LO:DY:rj	!	!LO:DY:rj	!	!LO:DY:rj	!	!	!	!LO:DY:rj	!	!	!	!LO:DY:rj	!	!	!	!LO:DY:rj
.	8AA/J	.	8cc# 8e/	8a\	się	.	8e 8A/	.	8g 8A/	f	8cc# 8e/	f	8AA/	f	8a/	.	8AA/J	f	8eeJ 8cc#\	.	8gg 8cc#\	f	8ee\	.	8ccc#\	f
=45	=45	=45	=45	=45	=45	=45	=45	=45	=45	=45	=45	=45	=45	=45	=45	=45	=45	=45	=45	=45	=45	=45	=45	=45	=45	=45
*	*	*	*	*	*	*	*	*	*	*	*	*	*	*	*	*	*	*	*^	*	*	*	*	*	*	*
!	!LO:TX:a:t=/&colon; Miler z ironią &colon;/	!	!	!	!	!	!	!	!	!	!	!	!	!	!	!	!	!	!	!	!	!	!	!	!	!	!
4.ryy	8D\	.	8dd 8f#/	8d\	w_smiech	.	8d\	.	8f# 8A/	.	8dd 8f#/	.	8D\	.	8d/	.	8D\	.	8dd/	8dd\	.	8ff# 8dd\	.	8ff#\	.	8ddd\	.
.	8r	.	8r	8r	.	.	8r	.	8r	.	8r	.	8r	.	8r	.	8r	.	8r	8ryy	.	8r	.	8r	.	8r	.
!	!LO:TX:t=P:problem:mixed beam	!	!	!	!	!	!	!	!	!	!	!	!	!	!	!	!	!	!	!	!	!	!	!	!	!	!
.	16A\LL	.	16ee 16cc#/	16a\	ha	.	16A/LL	.	16cc#\LL	.	16eeLL 16a\	.	8r	.	8r	.	8r	.	8r	8ryy	.	8r	.	8r	.	8r	.
.	16AA/JJ	.	16ee 16cc#/	16a\	ha	.	16A/JJ	.	16cc#\JJ	.	16eeJJ 16a\	.	.	.	.	.	.	.	.	.	.	.	.	.	.	.	.
*	*	*	*	*	*	*	*	*	*	*	*	*	*	*	*	*	*	*	*v	*v	*	*	*	*	*	*	*
=46	=46	=46	=46	=46	=46	=46	=46	=46	=46	=46	=46	=46	=46	=46	=46	=46	=46	=46	=46	=46	=46	=46	=46	=46	=46	=46
4.ryy	8D\	.	8ff# 8dd/	8d\	ha	.	8d\	.	8dd\	.	8ff# 8a\	.	8r	.	8r	.	8r	.	8r	.	8r	.	8r	.	8r	.
.	8r	.	8r	8r	.	.	8r	.	8r	.	8r	.	8r	.	8r	.	8r	.	8r	.	8r	.	8r	.	8r	.
!	!	!	!	!	!	!	!	!	!	!	!	!	!	!	!	!	!	!	!	!LO:DY:rj	!	!	!	!	!	!LO:DY:rj
.	16B-X\LL	.	16ee 16cc#/	16b-X\	ha	.	16B-X/LL	.	16g/LL	.	16cc#LL 16e/	.	16BB-X/LL	.	16e/LL	.	16B-X'\LL	.	16eeLL 16cc#X\	f	16ggLL 16cc#X\	.	16ee\LL	.	16ccc#'\LL	f
.	16A\JJ	.	16ee 16cc#/	16a\	ha	.	16A/JJ	.	16g/JJ	.	16cc#JJ 16e/	.	16AA/JJ	.	16e/JJ	.	16A'\JJ	.	16eeJJ 16cc#\	.	16ggJJ 16cc#\	.	16ee\JJ	.	16ccc#'\JJ	.
!!LO:PB:g=original
=47	=47	=47	=47	=47	=47	=47	=47	=47	=47	=47	=47	=47	=47	=47	=47	=47	=47	=47	=47	=47	=47	=47	=47	=47	=47	=47
*	*	*	*	*^	*	*	*	*	*	*	*	*	*	*	*	*	*	*	*^	*	*	*	*	*	*	*
!	!	!	!	!	!	!	!	!	!	!	!	!LO:TX:b:t=Violini	!	!LO:TX:a:t=Trombone	!	!LO:TX:a:t=Tromba	!	!	!	!	!	!	!	!	!	!	!	!
4.ryy	8D\	.	8dd 8f#/	8d\	8ryy	ha	.	8d\	.	8f#/	.	8dd 8f#/	.	8D\	.	8f#/	.	8D\	.	8dd/	8dd\	.	8dd 8f#/	.	8ff#\	.	8ddd\	.
.	8r	.	8r	8ryy	8ryy	.	.	8r	.	8r	.	8r	.	8r	.	8r	.	8r	.	8r	8ryy	.	8r	.	8r	.	8r	.
!	!LO:TX:t=P:problem:mixed beam	!	!	!	!	!	!	!	!	!	!	!	!	!	!	!	!	!LO:TX:t=P:problem:4r poprawiona na 8r	!	!	!	!	!	!	!	!	!	!
.	16A\LL	.	16ee/	16cc#\	16a\	ha	.	16A/LL	.	16cc#\LL	.	16eeLL 16a\	.	8r	.	8r	.	8r	.	8r	8ryy	.	8r	.	8r	.	8r	.
.	16AA/JJ	.	16ee/	16cc#\	16a\	ha	.	16A/JJ	.	16cc#\JJ	.	16eeJJ 16a\	.	.	.	.	.	.	.	.	.	.	.	.	.	.	.	.
*	*	*	*	*v	*v	*	*	*	*	*	*	*	*	*	*	*	*	*	*	*v	*v	*	*	*	*	*	*	*
=48	=48	=48	=48	=48	=48	=48	=48	=48	=48	=48	=48	=48	=48	=48	=48	=48	=48	=48	=48	=48	=48	=48	=48	=48	=48	=48
4.ryy	8D\	.	8ff#/	8dd 8d\	ha	.	8d\	.	8dd\	.	8ff# 8a\	.	8r	.	8r	.	8r	.	8r	.	8r	.	8r	.	8r	.
.	8r	.	8r	8ryy	.	.	8r	.	8r	.	8r	.	8r	.	8r	.	8r	.	8r	.	8r	.	8r	.	8r	.
!	!	!	!	!	!	!	!	!LO:DY:rj:a	!	!	!	!LO:DY:rj	!	!	!	!	!	!LO:DY:rj	!	!	!	!	!	!LO:DY:rj	!	!LO:DY:rj
.	16B-X\LL	.	16cc# 16g/	16b-X\	ha	.	16B-X/LL	f	16g/LL	.	16cc#LL 16e/	f	16BB-X/LL	.	16e/LL	.	16B-X'\LL	f	16eeLL 16cc#X\	.	16ggLL 16cc#\	.	16ee\LL	f	16ccc#\LL	f
.	16A\JJ	.	16cc# 16g/	16a\	ha	.	16A/JJ	.	16g/JJ	.	16cc#JJ 16e/	.	16AA/JJ	.	16e/JJ	.	16A'\JJ	.	16eeJJ 16cc#\	.	16ggJJ 16cc#\	.	16ee\JJ	.	16ccc#\JJ	.
=49	=49	=49	=49	=49	=49	=49	=49	=49	=49	=49	=49	=49	=49	=49	=49	=49	=49	=49	=49	=49	=49	=49	=49	=49	=49	=49
4.ryy	8D\	.	8dd 8f#/	8d\	ha.	.	8d\	.	8f#/	.	8dd 8f#/	.	8D\	.	8f#/	.	8D\	.	8dd\	.	8ff# 8dd\	.	8ff#\	.	8ddd\	.
.	8r	.	8r	8ryy	.	.	8r	.	8r	.	8r	.	8r	.	8r	.	8r	.	8r	.	8r	.	8r	.	8r	.
.	8r	.	8r	8ryy	.	.	8r	.	8r	.	8r	.	8r	.	8r	.	8r	.	8r	.	8r	.	8r	.	8r	.
*	*	*	*v	*v	*	*	*	*	*	*	*	*	*	*	*	*	*	*	*	*	*	*	*	*	*	*
=50	=50	=50	=50	=50	=50	=50	=50	=50	=50	=50	=50	=50	=50	=50	=50	=50	=50	=50	=50	=50	=50	=50	=50	=50	=50
!	!LO:TX:b:t=sec	!	!	!	!	!	!	!	!	!LO:TX:b:t=sec	!	!	!	!	!	!	!	!	!	!	!	!	!	!	!
4.ryy	8d 8D\	.	4.r	.	.	8f# 8A/	.	8ff# 8a\	.	8ddd 8ff#\	.	8D\	.	8f#/	.	8D\	.	8dd\	.	8ff# 8dd\	.	8ff#\	.	8ddd\	.
!	!	!	!	!	!	!	!	!	!	!	!	!	!	!	!	!	!	!	!	!LO:TX:a:t=due	!	!	!	!	!
.	8r	.	.	.	.	8r	.	8r	.	8r	.	8r	.	8r	.	8r	.	8r	.	8r	.	8r	.	8r	.
.	8r	.	.	.	.	8r	.	8r	.	8r	.	8BB/	.	(16.d/LL	.	8F#\	.	8ff#X 8b\	.	(16.dd\LL	.	8r	.	8r	.
.	.	.	.	.	.	.	.	.	.	.	.	.	.	32e/JJk)	.	.	.	.	.	32ee\JJk)	.	.	.	.	.
=51	=51	=51	=51	=51	=51	=51	=51	=51	=51	=51	=51	=51	=51	=51	=51	=51	=51	=51	=51	=51	=51	=51	=51	=51	=51
4.ryy	4.r	.	4.r	.	.	4.r	.	4.r	.	4.r	.	4BB/	.	(8d/L	.	4F#\	.	4ff#X 4b\	.	(8dd\L	.	4.r	.	4.r	.
.	.	.	.	.	.	.	.	.	.	.	.	.	.	8B/J)	.	.	.	.	.	8b\J)	.	.	.	.	.
.	.	.	.	.	.	.	.	.	.	.	.	8BB/	.	(16.d/LL	.	8F#\	.	8ff# 8b\	.	(16.dd\LL	.	.	.	.	.
.	.	.	.	.	.	.	.	.	.	.	.	.	.	32e/JJk)	.	.	.	.	.	32ee\JJk)	.	.	.	.	.
!!LO:PB:g=original
=52	=52	=52	=52	=52	=52	=52	=52	=52	=52	=52	=52	=52	=52	=52	=52	=52	=52	=52	=52	=52	=52	=52	=52	=52	=52
4.ryy	4.r	.	4.ryy	.	.	4.r	.	4.r	.	4.r	.	4.E#X\	.	(8d/L	.	4.E#X\	.	4.gg#X 4.b\	.	(8dd\L	.	4.r	.	4.r	.
.	.	.	.	.	.	.	.	.	.	.	.	.	.	8B/J)	.	.	.	.	.	8b\J)	.	.	.	.	.
.	.	.	.	.	.	.	.	.	.	.	.	.	.	(16.d/LL	.	.	.	.	.	(16.dd\LL	.	.	.	.	.
.	.	.	.	.	.	.	.	.	.	.	.	.	.	32e/JJk)	.	.	.	.	.	32ee\JJk)	.	.	.	.	.
=53	=53	=53	=53	=53	=53	=53	=53	=53	=53	=53	=53	=53	=53	=53	=53	=53	=53	=53	=53	=53	=53	=53	=53	=53	=53
!	!	!	!	!	!	!	!	!	!	!LO:TX:b:t=(&colon; a cicho! dosyć iuż tego, przeklęte trąmby \nchcą mnie zywcem \ndo piekła wtrącić. &colon;)	!	!	!	!	!	!	!	!	!	!	!	!	!	!	!
4.ryy	4.r	.	4.ryy	.	.	4.r	.	4.r	.	4.r	.	4F#\	.	(8d/L	.	4F#\	.	4ff#X 4b\	.	(8dd\L	.	8r	.	8r	.
.	.	.	.	.	.	.	.	.	.	.	.	.	.	8B/J)	.	.	.	.	.	8b\J)	.	8r	.	8r	.
.	.	.	.	.	.	.	.	.	.	.	.	8En\	.	8b\	.	8En\	.	8gg 8ee\	.	8bb 8b\	.	(32b\LLL	.	(32bb\LLL	.
.	.	.	.	.	.	.	.	.	.	.	.	.	.	.	.	.	.	.	.	.	.	32cc#\	.	32ccc#\	.
.	.	.	.	.	.	.	.	.	.	.	.	.	.	.	.	.	.	.	.	.	.	32dd\	.	32ddd\	.
.	.	.	.	.	.	.	.	.	.	.	.	.	.	.	.	.	.	.	.	.	.	32ee\JJJ	.	32eee\JJJ	.
=54	=54	=54	=54	=54	=54	=54	=54	=54	=54	=54	=54	=54	=54	=54	=54	=54	=54	=54	=54	=54	=54	=54	=54	=54	=54
!	!	!	!	!	!	!	!	!	!	!	!	!	!	!	!	!	!	!LO:SIC:v:n=1:s=8ff#	!	!	!	!	!	!	!
4.ryy	4.r	.	4.ryy	.	.	4.r	.	4.r	.	4.r	.	8BB/	.	8f#/	.	8BB/	.	8ff 8b\	.	8ff# 8dd\	.	8ff#\)	.	8fff#\)	.
.	.	.	.	.	.	.	.	.	.	.	.	8r	.	8r	.	8r	.	8r	.	8r	.	8r	.	8r	.
.	.	.	.	.	.	.	.	.	.	.	.	8r	.	8r	.	8r	.	8r	.	8r	.	8r	.	8r	.
=||	=||	=||	=||	=||	=||	=||	=||	=||	=||	=||	=||	=||	=||	=||	=||	=||	=||	=||	=||	=||	=||	=||	=||	=||	=||
*-	*-	*-	*-	*-	*-	*-	*-	*-	*-	*-	*-	*-	*-	*-	*-	*-	*-	*-	*-	*-	*-	*-	*-	*-	*-
!!!system-decoration: ({s1,s2}<s3,s4,s5,s6,s7>{s8,s9}<s10,s11,s12,s13>)
!!!RDF**kern: > = above
!!!RDF**kern: < = below
!!!RDF**kern: | = vertical stroke
!!!ENC: Andrzej Kubiczek
!!!END: 2021-05-11
!!!ENC: Katarzyna Serwa
!!!END: 2021-04-30
